X:1768
L:1/8
Q:1/8=180
M:4/4
K:D
 AF F2 BFAF | DEFA B3 d | eB B2 egfe | dfed BcdB | AF F2 BFAF | DEFA B3 d | egfg egdB | 
 AFEF D3 z :| d3 e fefg | afbf afdf | eB B2 gB B2 | fedf efdB | AF F2 ABde | afbf afdf | 
 gafg efdB | AFEF D4 :|

